X:640
T: Bank of Turf [HP]
T: M\'ointe\'an
S: B.Breathnach:"Ceol Rince na hEireann" III/209
Z: B.Black
L: 1/8
M: 4/4
R: hornpipe
K: G
(3DEF|G2 GF GABc|(3dcB cA GBAG|EF (3FGE FEDE|F2 fe dcAF|
G2 (3AGF GABc|(3dcB cA GBAG|EF (3gfe dcAF|(3ABA G2 G2 :|
Bc|dg g2 g3a|bg g2 gbag|f2 dc d2 dc|(3Bcd BG (3ABc AF|
Gg g2 dg g2|bg g2 gbag|f2 dc dAFG|(3ABA G2 G2 :|
(3DEF|G2 GA B3c|d2 GF G2 AB/c/|d2 G2 (3cdc Bc|AD (3FED dcAF|
GFGA B3c|(3dcB cA GBAG|F2 g/f/e/d/ cAFD|(3ABA G2 G2 :|
